X:432
%%etbk:tnset id:103,pos:1,rep:3x,ant:
%%etbk:wsite http://www.thesession.org/tunes/display/7929
%%etbk:pldat 2016-09-07T15:42,2014-05-17T20:41,2014-05-09T18:41,2014-04-27T15:51,2014-02-15T16:15,2014-02-13T18:31,2014-02-11T16:36,2013-12-11T18:23,2013-11-17T15:43,2013-05-22T15:26
T: An Buachaill Dreoite
Z: Piano Box Version by Martin Fleischmann
H: Created 2013-02-19 /  Last Modified 2013-02-19
M: 4/4
L: 1/8
R: fling
K: Gmaj
|: "G"!1!D!3!G!1!G!3!B !5!d2!1!G!3!B | !5!d2!1!G!2!F !3!G!5!BA!2!F | !1!D!3!G!1!GB !5!dBGB | !5!dB!4!cA "D"!1!=F3!2!E |
 "G"!1!D!3!G!1!GB !5!d2!1!G!2!F | !1!D!3!G!3!G!2!F !1!G2!2!B!3!d | !5!g2!3!gf !3!gbag | "D"!2!f!1!d!3!c!2!A "G"!1!G3:|
|:GA| "G"!3!B2BG "D"!4!cBc!2!A | "G"!5!d2!1!G!2!F !1!G3A | !3!B2BG "D"!4!cBc!2!A | !5!d2!1!DE !3!F!1!GAG |
"G"!3!B3G "D"!4!cBc!1!A | !3!d!2!^c!1!de !3!f2 !1!d/e/f | "G"!4!g2!3!gf !3!gbag | "D"!2!f!1!d!3!c!2!A "G"!1!G3:|


